X:1
T:Stars and Strips Forever
T:Stars and Stripes Forever
T:John Philip Sousa
C:John Phillip Sousa
%%score { ( 1 4 ) | ( 2 3 ) }
L:1/8
Q:1/2=108
M:2/2
K:Eb
V:1 treble nm="Piano" snm="Pno."
V:4 treble 
V:2 bass 
V:3 bass 
V:1
!ff! !^![Ee]4 [Dd]3 [Ee] | [Cc]2 !^![Ee]4 [Ff]2 | !^![_G_g]2 !^![=G=g]2 !^![Aa]2 !^![=A=a]2 | %3
 !^![Bb]2 z2 B4 |:!mf! !^![Bg]2!<(! z [Bg] [=Bg]2 [Bg]2!<)! | [cg]2 z [cg] [ca]2 [ca]2 | %6
 f=e.f.g .f2 ._e2 | .d2 .c2 .d2 .B2 | !^![Bb]2 z [Bb] [Bb]2 [Bb]2 | [Bb]2 z [Bb] [=B=b]2 [Bb]2 | %10
 (!>![cc']=b).c'.e' !>!d'2 [cc']2 | [=B=b]6 [Bb]2 |!p! [Bb]2 z b .e'2 z .c' | .b2 .=a2 .b2 .g2 | %14
!f! !>!f2 (!>!B=A BA B2) | !>!f2 (!>!B=A BA B2) |!p! [Bb]2 z .b .e'2 z .c' | .b2 .=a2 .b2 ._g2 | %18
!f! !^!f2 (!>!=AG AG A2 |1 B2) z2 !^!B4 :|2 B2 z2!ff! ([Bb]3 [Aa]) |:!ff! [Gg]4 ([cc']3 [Bb]) | %22
 [Dd]4 [Cc]4 | [B,B]4 [Aa]4 | [Gg]4 ([Ff]3 [Gg]) | [Aa]2 [cc']4 [ee']2 | [ff']4 [ee']4 | ([Gg]8 | %28
 [Ff]4) ([Bb]3 [Aa]) | [Gg]4 ([cc']3 [Bb]) | [Dd]4 [Cc]4 | [B,B]4 [Aa]4 | [Gg]4 ([Ff]3 [Gg]) | %33
 ([Aa]2 [cc']2 [ff']3 [ee']) | ([Gg]2 [Bb]2 [Ee]3 [Gg]) | ([Ff]8 |1 [Ee]2) z2 (!^![Bb]3 [Aa]) :|2 %37
 [Ee]2 z2 e4 ||[K:Ab] e4 (d2 c2) | c4 (=B2 c2) | c8- | c4 (=B2 c2) | c4 (!>!=B2 c2) | %43
 e4 (!>!c3 e) | (d8 | B4) B4 | B4 (!>!=A2 B2) | B4 (!>!=A2 B2) | d8- | d4 (c2 B2) | c2 !^!e6 | %51
 [Adf]6 (f2 | B8-) | B4 e4 | e4 (d2 c2) | c4 (=B2 c2) | c8- | c4 (=B2 c2) | c4 (=B2 c2) | %59
!<(! (d2 c2 B3 g)!<)! | (B8 | A4) A4 | A4 G2 A2 | (_c4!<(! B2 A2)!<)! | [Aa]8- | %65
 [Aa]2!<(! (A2 B2 c2!<)! | e) z!<(! (A2 B2 c2!<)! | e) z!<(! (E2 F2 c2!<)! | (B8) | A2) z2 z4 |: %70
!f! z8 | z4 !^![Ff]2 !^![=E=e]2 | z4 !^![Ff]2 !^![Gg]2 | [=E=e]4 z4 | z8 | z4 !^![Aa]2 !^![Gg]2 | %76
 z4 !^![Aa]2 !^![Bb]2 | [Gg]4!<(! (EGBd!<)! | !^!_f3) .[ABf] .[ABf]2 .[ABf]2 | %79
 .[GB_f]2 .e2 .=d2 ._d2 | c2 _c2 B2 =A2 | A2 _G2 (F=Ace | !^!_g3) .[Bcg] .[Bcg]2 .[Bcg]2 | %83
 .[=Ac_g]2 .f2 .=e2 ._e2 | .=d2 ._d2 .c2 ._c2 | .B2 .A2 (GBeg | !^!b3) .[d_fab] .[dfab]2 .[dfab]2 | %87
 !^![degb]2 !^![degb]2 z4 | !^!b3 .[d_fab] .[dfab]2 .[dfab]2 | !^![degb]2 !^![degb]2 z4 | %90
 !^![Bb]3!<(! ([Bb] !^![=A=a]3) ([Aa]!<)! | !^![_A_a]3) ([Aa] !^![Gg]3) ([Gg] | %92
 [_G_g]3) ([Gg] !^![Ff]3) ([Ff] |!<(! [_F_f]2) !^![Ee]2 !^![=F=f]2 !^!e2!<)! || %94
 [ee']4 ([dd']2 [cc']2) | [cc']4 ([=B=b]2 [cc']2) | [cc']8- | [cc']4 (!>![=B=b]2 [cc']2) | %98
 [cc']4 (!>![=B=b]2 [cc']2) | [ee']4 ([cc']3 [ee']) | ([dd']8 | [Bb]4) [Bb]4 | %102
 [Bb]4 (!>![=A=a]2 [Bb]2) | [Bb]4 (!>![=A=a]2 [Bb]2) | [dd']8- | [dd']4 [cc']2 [Bb]2 | %106
!<(! [cc']2 [ee']6!<)! | !^![ff']6 [ff']2 | [Bb]8- | [Bb]4 [ee']4 | [ee']4 ([dd']2 [cc']2) | %111
 [cc']4 ([=B=b]2 [cc']2) | [cc']8- | [cc']4 (!>![=B=b]2 [cc']2) | [cc']4 (!>![=B=b]2 [cc']2) | %115
 ([dd']2 [cc']2 [Bb]3 [gg']) | ([Bb]8 | [Aa]4) [Aa]4 | ([Aa]4 [Gg]2 [Aa]2) | %119
 ([_c_c']4 [Bb]2 [Aa]2) | [aa']8- | [aa']2 ([Aa]2 [Bb]2 [cc']2 | [ee']) z ([Aa]2 [Bb]2 [cc']2 | %123
 [ee']) z ([Ee]2 [Ff]2 [cc']2 | ([Bb]8) |1 [Aa]2) z2 z4 :|2 [Aa]2 z2 !>![Acea]2 z2 |] %127
V:2
 [E,,E,]4 [D,,D,]3 [E,,E,] | [C,,C,]2 z2 !^![C,E,C]4 | !^![_C,E,_C]4 !^![C,E,C]4 | %3
 [B,,D,F,B,]2 z2 z4 |: E,4 D,4 | C,4 F,4 | D,4 C,4 | B,,4 A,4 | G,4 F,4 | E,4 D,4 | C,4 E,4 | %11
 G,,2 [G,=B,D]2!>(! [G,B,D]2 [G,B,D]2!>)! | E,2 [G,B,]2 B,,2 [G,B,]2 | E,2 [G,B,]2 B,,2 [G,B,]2 | %14
 D,2 [A,B,]2 B,,2 [A,B,]2 | D,2 [A,B,]2 B,,2 [A,B,]2 | E,2 [G,B,]2 B,,2 [G,B,]2 | %17
 E,2 [G,B,]2 B,,2 [B,E]2 | F,2 [CE]2 F,2 [CE]2 |1 [B,D]2 z2 !^![B,,D,F,B,]4 :|2 %20
 [B,D]2 z2 [B,,D,F,B,]4 |: E,2 [G,B,]2 B,,2 [G,B,]2 | F,2 [A,B,]2 B,,2 [A,B,]2 | %23
 D,2 [A,B,]2 B,,2 [A,B,]2 | E,2 [G,B,E]2 [G,B,E]2 [G,B,E]2 | A,,2 [A,CE]2 [A,CE]2 [A,CE]2 | %26
 =A,,2 [=A,CE]2 [A,CE]2 [A,CE]2 | B,,2 [B,E]2 !>!E,2 [G,B,E]2 | D,2 [A,B,D]2 [B,,D,F,B,]4 | %29
 E,2 [G,B,]2 B,,2 [G,B,]2 | F,2 [A,B,]2 B,,2 [A,B,]2 | F,2 [A,B,]2 B,,2 [A,B,]2 | %32
 z2 [G,B,]2 z2 [G,B,]2 | z2 [E,A,]2 z2 [E,A,]2 | B,,2 [G,B,E]2 [G,B,E]2 [G,B,E]2 | %35
 B,,2 [A,B,D]2 [A,B,D]2 [A,B,D]2 |1 [E,G,B,]2 z2 !^![B,,D,F,B,]4 :|2 z8 || %38
[K:Ab] !>!A,,2 [A,CE]2 [A,CE]2 !>!E,2 | !>!A,,2 [A,CE]2 [A,CE]2 !>!E,2 | %40
 !>!A,,2 [A,CE]2 [A,CE]2 !>!E,2 | !>!A,,2 [A,CE]2 [A,CE]2 !>!E,2 | !>!A,,2 [A,CE]2 [A,CE]2 !>!E,2 | %43
 !>!A,,2 [A,CE]2 [A,CE]2 !>!E,2 | !>!B,,2 [G,DE]2 [G,DE]2 !>!E,2 | !>!B,,2 [G,DE]2 [G,DE]2 !>!E,2 | %46
 !>!B,,2 [G,DE]2 [G,DE]2 !>!E,2 | !>!B,,2 [G,DE]2 [G,DE]2 !>!E,2 | B,,2 [G,DE]2 [G,DE]2 E,2 | %49
 !>!B,,2 [G,DE]2 [G,DE]2 !>!E,2 | !>!A,,2 [A,CE]2 [A,CE]2 [A,CE]2 | %51
 !>!D,2 [A,DF]2 [A,DF]2 [A,DF]2 | !>!E,2 [G,B,E]2 !>!B,,2 [G,B,E]2 | %53
 !>!G,,2 [G,B,E]2 !>!E,2 [G,B,E]2 | !>!A,,2 [A,CE]2 [A,CE]2 !>!E,2 | %55
 !>!A,,2 [A,CE]2 [A,CE]2 !>!E,2 | !>!A,,2 [A,CE]2 [A,CE]2 !>!E,2 | !>!A,,2 [A,CE]2 [A,CE]2 !>!E,2 | %58
 !>![G,,G,]2 [B,C=E]2 [B,CE]2 !>!C,2 | !>![G,,G,]2 [B,C=E]2 [B,CE]2 !>!C,2 | %60
 !>!F,2 [B,CF]2 [B,CF]2 !>!C,2 | !>!F,2 [A,CF]2 [A,CF]2 !>!C,2 | !>!_F,2 [A,D]2 [A,D]2 [A,D]2 | %63
 _F,2 [A,_C]2 [A,C]2 [A,C]2 | E,2 [CE]2 A,,2 [CE]2 | C,2 [CE]2 E,2 [CE]2 | C,2 [CE]2 E,2 [CE]2 | %67
 A,2 [CE]2 C2 [CE]2 | G,2 [DE]2 E,2 [DE]2 | [A,CE]2 z2 !>!A,,A,!>!A,,A, |: %70
 !^![A,,A,]2 [G,,G,] z !^![G,,G,]2 [F,,F,] z | !^![F,,F,]2 !^![=E,,=E,]2 z4 | %72
 !^![F,,F,]2 !^![=E,,=E,]2 [D,F,B,]2 [D,F,B,]2 | [C,=E,G,C]4 !^!C,C!^!C,C | %74
 ([C,C]2 [B,,B,]) z ([B,,B,]2 [A,,A,]) z | !^![A,,A,]2 !^![G,,G,]2 z4 | %76
 !^![A,,A,]2 !^![G,,G,]2 [_F,A,D]2 [F,A,D]2 | [E,G,B,E]4 z4 | z8 | z8 | z8 | z8 | z8 | z8 | z8 | %85
 z8 | z8 | z8 | z8 | z8 | [B,,B,]3 ([B,,B,] !^![=A,,=A,]3) ([A,,A,] | %91
 !^![_A,,_A,]3) [A,,A,] !^![G,,G,]3 ([G,,G,] | !^![_G,,_G,]3) ([G,,G,] !^![F,,F,]3) ([F,,F,] | %93
 [_F,,_F,]2) !^![E,,E,]2 !^![=F,,=F,]2 !^![E,,E,]2 ||!ff! A,,2 [A,CE]2 [A,CE]2 E,2 | %95
 A,,2 [A,CE]2 [A,CE]2 E,2 | A,,2 [A,CE]2 [A,CE]2 E,2 | A,,2 [A,CE]2 [A,CE]2 E,2 | %98
 A,,2 [A,CE]2 [A,CE]2 E,2 | A,,2 [A,CE]2 [A,CE]2 E,2 | B,,2 [G,DE]2 [G,DE]2 E,2 | %101
 B,,2 [G,DE]2 [G,DE]2 E,2 | B,,2 [G,DE]2 [G,DE]2 E,2 | B,,2 [G,DE]2 [G,DE]2 E,2 | %104
 B,,2 [G,DE]2 [G,DE]2 E,2 | B,,2 [G,DE]2 [G,DE]2 E,2 | A,,2 [A,CE]2 [A,CE]2 [A,CE]2 | %107
 D,2 [A,DF]2 [A,DF]2 [A,DF]2 | E,2 [G,B,E]2 B,,2 [G,B,E]2 | G,,2 [G,B,E]2 E,2 [G,B,E]2 | %110
 A,,2 [A,CE]2 [A,CE]2 E,2 | A,,2 [A,CE]2 [A,CE]2 E,2 | A,,2 [A,CE]2 [A,CE]2 E,2 | %113
 A,,2 [A,CE]2 [A,CE]2 E,2 | [G,,G,]2 [B,C=E]2 [B,CE]2 C,2 | [G,,G,]2 [B,C=E]2 [B,CE]2 C,2 | %116
 F,2 [B,CF]2 [B,CF]2 C,2 | F,2 [A,CF]2 [A,CF]2 C,2 | _F,2 [A,D]2 [A,D]2 [A,D]2 | %119
 _F,2 [A,_C]2 [A,C]2 [A,C]2 | E,2 [CE]2 A,,2 [CE]2 | C,2 [CE]2 E,2 [CE]2 | C,2 [CE]2 E,2 [CE]2 | %123
 A,2 [CE]2 C2 [EA]2 | G,2 [DE]2 E,2 [DE]2 |1 [A,CE]2 z2 !>!A,,A,!>!A,,A, :|2 %126
 [A,CE]2 z2 !>![A,,,A,,]2 z2 |] %127
V:3
 x8 | x8 | x8 | x8 |: z2 [G,B,]2 z2 [F,G,]2 | z2 [E,G,C]2 z2 [A,C]2 | z2 [F,B,]2 z2 [F,=A,]2 | %7
 z2 [F,B,]2 z2 [B,D]2 | z2 [B,E]2 z2 [A,B,]2 | z2 [G,B,]2 z2 [G,=B,]2 | z2 [G,C]2 z2 [G,C]2 | x8 | %12
 x8 | x8 | x8 | x8 | x8 | x8 | x8 |1 x8 :|2 x8 |: x8 | x8 | x8 | x8 | x8 | x8 | x8 | x8 | x8 | x8 | %31
 x8 | E,4 _D,4 | C,4 _C,4 | x8 | x8 |1 x8 :|2 x8 ||[K:Ab] x8 | x8 | x8 | x8 | x8 | x8 | x8 | x8 | %46
 x8 | x8 | x8 | x8 | x8 | x8 | x8 | x8 | x8 | x8 | x8 | x8 | x8 | x8 | x8 | x8 | x8 | x8 | x8 | %65
 x8 | x8 | x8 | x8 | x8 |: x8 | x8 | x8 | x8 | x8 | x8 | x8 | x8 | x8 | x8 | x8 | x8 | x8 | x8 | %84
 x8 | x8 | x8 | x8 | x8 | x8 | x8 | x8 | x8 | x8 || x8 | x8 | x8 | x8 | x8 | x8 | x8 | x8 | x8 | %103
 x8 | x8 | x8 | x8 | x8 | x8 | x8 | x8 | x8 | x8 | x8 | x8 | x8 | x8 | x8 | x8 | x8 | x8 | x8 | %122
 x8 | x8 | x8 |1 x8 :|2 x8 |] %127
V:4
 x8 | x8 | x8 | x8 |: x8 | x8 | x8 | x8 | x8 | x8 | x8 | x8 | x8 | x8 | x8 | x8 | x8 | x8 | x8 |1 %19
 x8 :|2 x8 |: x8 | x8 | x8 | x8 | x8 | x8 | x8 | x8 | x8 | x8 | x8 | x8 | x8 | x8 | x8 |1 x8 :|2 %37
 x8 ||[K:Ab] x8 | x8 | x8 | x8 | x8 | x8 | x8 | x8 | x8 | x8 | x8 | x8 | x8 | x8 | x8 | x8 | x8 | %55
 x8 | x8 | x8 | x8 | x8 | x8 | x8 | x8 | x8 | x8 | x8 | x8 | x8 | x8 | x8 |: x8 | x8 | x8 | x8 | %74
 x8 | x8 | x8 | x8 | !^!_F3 .F .F2 .F2 | ._F2 .E2 .=D2 ._D2 | C2 _C2 B,2 =A,2 | A,2 _G,2 z2 z2 | %82
 _G3 G G2 G2 | _G2 F2 =E2 _E2 | =D2 _D2 C2 _C2 | B,2 A,2 x4 | !^!B3 B B2 B2 | !^!E2 !^!E2 GBeg | %88
 !^!B3 B B2 B2 | !^!E2 !^!E2 (GBeg) | x8 | x8 | x8 | x8 || x8 | x8 | x8 | x8 | x8 | x8 | x8 | x8 | %102
 x8 | x8 | x8 | x8 | x8 | x8 | x8 | x8 | x8 | x8 | x8 | x8 | x8 | x8 | x8 | x8 | x8 | x8 | x8 | %121
 x8 | x8 | x8 | x8 |1 x8 :|2 x8 |] %127

